rospo-dark/16x16/actions/playlist-generator.svg

<svg height="16" viewBox="0 0 16 16" width="16" xmlns="http://www.w3.org/2000/svg"><path d="m3 1a2 2 0 0 0 -2 2 2 2 0 0 0 2 2 2 2 0 0 0 2-2 2 2 0 0 0 -2-2zm8.109375 0c-.259.004-.507406.1091688-.691406.2929688l-3.5000002 3.5-.5.5-2 2-1.5 1.5-.5.5-1.125 1.1250002c-.39040005.39-.39040005 1.024062 0 1.414062l2.875 2.875c.3905.39 1.0235625.39 1.4140624 0l1.125-1.125.5-.5 3.4999998-3.4999998.5-.5 3.5-3.5c.39-.3905.39-1.0235625 0-1.4140624l-2.875-2.875c-.191-.1914001-.451656-.2971188-.722656-.2929688zm-3.484375 5.9140625.0117188.0117187 1.4375 1.4375.0117187.0117188-3.2929687 3.292969-.5.5-.4179688.417969-1.4609375-1.460938.4179687-.417969.5-.5 1.5-1.4999998z" fill="#d3dae3"/></svg>

<?xml version="1.0" encoding="UTF-8" standalone="no"?>
<svg xmlns="http://www.w3.org/2000/svg" width="22" height="22" viewBox="0 0 22 22">
 <defs>
  <style type="text/css" id="current-color-scheme">
   .ColorScheme-Text { color:#d3dae3; } .ColorScheme-Highlight { color:#5294e2; }
  </style>
 </defs>
 <path style="fill:currentColor;opacity:1" class="ColorScheme-Text" transform="translate(3 3)" d="M 3 1 A 2 2 0 0 0 1 3 A 2 2 0 0 0 3 5 A 2 2 0 0 0 5 3 A 2 2 0 0 0 3 1 z M 11.109375 1 C 10.850375 1.004 10.601969 1.1091688 10.417969 1.2929688 L 6.9179688 4.7929688 L 6.4179688 5.2929688 L 4.4179688 7.2929688 L 2.9179688 8.7929688 L 2.4179688 9.2929688 L 1.2929688 10.417969 C 0.90256875 10.807969 0.90256875 11.442031 1.2929688 11.832031 L 4.1679688 14.707031 C 4.5584688 15.097031 5.1915313 15.097031 5.5820312 14.707031 L 6.7070312 13.582031 L 7.2070312 13.082031 L 10.707031 9.5820312 L 11.207031 9.0820312 L 14.707031 5.5820312 C 15.097031 5.1915312 15.097031 4.5584687 14.707031 4.1679688 L 11.832031 1.2929688 C 11.641031 1.1015687 11.380375 0.99585 11.109375 1 z M 7.625 6.9140625 L 7.6367188 6.9257812 L 9.0742188 8.3632812 L 9.0859375 8.375 L 5.7929688 11.667969 L 5.2929688 12.167969 L 4.875 12.585938 L 3.4140625 11.125 L 3.8320312 10.707031 L 4.3320312 10.207031 L 5.8320312 8.7070312 L 7.625 6.9140625 z"/>
</svg>
